;FLAVOR:Marlin
;TIME:7584
;Filament used: 8.63509m
;Layer height: 0.28
;Generated with Cura_SteamEngine 2.7.0
M104 S205 ; set extruder temp
M140 S60 ; set bed temp
M190 S60 ; wait for bed temp
M109 S205 ; wait for extruder temp
G21        ;metric values
G90        ;absolute positioning
M82        ;set extruder to absolute mode
M107       ;start with the fan off
G28 X0 Y0  ;move X/Y to min endstops
G28 Z0     ;move Z to min endstops
G1 Z15.0 F{travel_speed} ;move the platform down 15mm
G92 E0                  ;zero the extruded length
G1 F140 E30              ;extrude 3mm of feed stock
G1 X20 Y0 F140 E30
G92 E0                  ;zero the extruded length again
G1 F{travel_speed}
M117 Printing...
;LAYER_COUNT:54
;LAYER:0
M107
M204 S800
M205 X8 Y8
G0 F3600 X19.852 Y19.187 Z0.15
;TYPE:SKIRT
G1 F1800 X21.121 Y17.783 E0.04721
G1 X21.368 Y17.532 E0.05599
G1 X23.569 Y15.491 E0.13087
G1 X23.926 Y15.197 E0.14241
G1 X26.181 Y13.546 E0.21212
G1 X26.599 Y13.278 E0.22451
G1 X28.992 Y11.946 E0.29283
G1 X29.365 Y11.763 E0.30319
G1 X30.797 Y11.151 E0.34204
G1 X31.194 Y11.006 E0.35258
G1 X33.559 Y10.279 E0.4143
G1 X34.017 Y10.167 E0.42606
G1 X35.895 Y9.825 E0.47368
G1 X36.363 Y9.768 E0.48544
G1 X38.492 Y9.635 E0.53865
G1 X38.984 Y9.634 E0.55093
G1 X41.083 Y9.762 E0.60338
G1 X41.607 Y9.829 E0.61656
G1 X44.167 Y10.329 E0.68163
G1 X44.566 Y10.429 E0.69189
G1 X45.678 Y10.768 E0.72089
G1 X45.927 Y10.853 E0.72745
G1 X47.096 Y11.295 E0.75862
G1 X47.36 Y11.405 E0.76576
G1 X48.824 Y12.082 E0.80599
G1 X49.195 Y12.278 E0.81646
G1 X51.604 Y13.716 E0.88645
G1 X52.013 Y13.996 E0.89881
G1 X54.274 Y15.758 E0.97032
G1 X54.574 Y16.017 E0.9802
G1 X56.147 Y17.516 E1.0344
G1 X56.334 Y17.706 E1.04105
G1 X57.337 Y18.798 E1.07804
G1 X57.501 Y18.989 E1.08432
G1 X59.007 Y20.851 E1.14406
G1 X59.222 Y21.142 E1.15308
G1 X61.128 Y23.991 E1.23859
G1 X61.327 Y24.322 E1.24823
G1 X62.997 Y27.43 E1.33624
G1 X63.142 Y27.73 E1.34455
G1 X64.473 Y30.795 E1.4279
G1 X64.587 Y31.087 E1.43572
G1 X65.706 Y34.341 E1.52156
G1 X65.79 Y34.619 E1.5288
G1 X66.675 Y37.964 E1.61512
G1 X66.725 Y38.174 E1.6205
G1 X67.096 Y39.962 E1.66605
G1 X67.133 Y40.171 E1.67135
G1 X67.672 Y43.701 E1.76043
G1 X67.704 Y43.974 E1.76728
G1 X68.008 Y47.634 E1.8589
G1 X68.022 Y47.904 E1.86564
G1 X68.077 Y51.484 E1.95495
G1 X68.072 Y51.752 E1.96164
G1 X67.884 Y55.379 E2.05224
G1 X67.861 Y55.648 E2.05897
G1 X67.435 Y59.205 E2.14834
G1 X67.393 Y59.476 E2.15518
G1 X66.744 Y62.89 E2.24186
G1 X66.681 Y63.165 E2.2489
G1 X65.793 Y66.526 E2.33562
G1 X65.708 Y66.805 E2.3429
G1 X64.583 Y70.075 E2.42916
G1 X64.501 Y70.295 E2.43501
G1 X63.873 Y71.823 E2.47622
G1 X63.775 Y72.041 E2.48219
G1 X62.332 Y75.031 E2.565
G1 X62.174 Y75.326 E2.57335
G1 X60.492 Y78.174 E2.65586
G1 X60.311 Y78.454 E2.66418
G1 X58.894 Y80.452 E2.72528
G1 X58.733 Y80.663 E2.7319
G1 X57.627 Y82.022 E2.77561
G1 X57.474 Y82.2 E2.78146
G1 X56.278 Y83.505 E2.82562
G1 X56.079 Y83.707 E2.83269
G1 X54.509 Y85.193 E2.88662
G1 X54.221 Y85.44 E2.89608
G1 X52.114 Y87.086 E2.96278
G1 X51.74 Y87.346 E2.97414
G1 X49.555 Y88.683 E3.03804
G1 X49.239 Y88.857 E3.04704
G1 X48.057 Y89.441 E3.07993
G1 X47.709 Y89.593 E3.0894
G1 X45.446 Y90.455 E3.14981
G1 X44.95 Y90.608 E3.16276
G1 X42.62 Y91.164 E3.22251
G1 X42.213 Y91.239 E3.23283
G1 X40.874 Y91.415 E3.26652
G1 X40.475 Y91.447 E3.27651
G1 X38.318 Y91.513 E3.33034
G1 X37.816 Y91.497 E3.34287
G1 X35.607 Y91.286 E3.39822
G1 X35.142 Y91.214 E3.40996
G1 X33.383 Y90.834 E3.45485
G1 X33.075 Y90.754 E3.46279
G1 X31.863 Y90.389 E3.49436
G1 X31.601 Y90.3 E3.50127
G1 X30.432 Y89.858 E3.53244
G1 X30.171 Y89.749 E3.5395
G1 X28.743 Y89.09 E3.57873
G1 X28.374 Y88.896 E3.58913
G1 X25.95 Y87.454 E3.65949
G1 X25.584 Y87.208 E3.67049
G1 X23.839 Y85.89 E3.72504
G1 X23.569 Y85.667 E3.73377
G1 X21.963 Y84.217 E3.78775
G1 X21.68 Y83.934 E3.79773
G1 X19.412 Y81.432 E3.88197
G1 X19.19 Y81.164 E3.89065
G1 X18.069 Y79.687 E3.9369
G1 X17.918 Y79.475 E3.9434
G1 X16.491 Y77.317 E4.00793
G1 X16.309 Y77.013 E4.01677
G1 X14.536 Y73.732 E4.1098
G1 X14.386 Y73.423 E4.11837
G1 X13.055 Y70.358 E4.20172
G1 X12.943 Y70.07 E4.20943
G1 X11.839 Y66.87 E4.29387
G1 X11.753 Y66.587 E4.30125
G1 X10.849 Y63.168 E4.38947
G1 X10.786 Y62.89 E4.39658
G1 X10.125 Y59.399 E4.48521
G1 X10.083 Y59.124 E4.49215
G1 X9.655 Y55.497 E4.58325
G1 X9.632 Y55.225 E4.59006
G1 X9.454 Y51.623 E4.68003
G1 X9.45 Y51.354 E4.68674
G1 X9.515 Y47.724 E4.7773
G1 X9.528 Y47.456 E4.78399
G1 X9.831 Y43.901 E4.873
G1 X9.864 Y43.632 E4.87976
G1 X10.406 Y40.112 E4.9686
G1 X10.458 Y39.838 E4.97556
G1 X11.232 Y36.418 E5.06302
G1 X11.306 Y36.138 E5.07025
G1 X12.318 Y32.807 E5.15709
G1 X12.389 Y32.594 E5.16269
G1 X12.972 Y31.003 E5.20496
G1 X13.06 Y30.784 E5.21085
G1 X14.395 Y27.714 E5.29436
G1 X14.564 Y27.372 E5.30387
G1 X16.726 Y23.467 E5.41522
G1 X16.918 Y23.154 E5.42438
G1 X18.047 Y21.495 E5.47443
G1 X18.201 Y21.283 E5.48097
G1 X19.666 Y19.407 E5.54035
G1 X19.852 Y19.187 E5.54753
G0 F3600 X20.148 Y19.455
G1 F1800 X21.417 Y18.051 E5.59474
G1 X21.64 Y17.825 E5.60266
G1 X23.841 Y15.784 E5.67754
G1 X24.162 Y15.519 E5.68792
G1 X26.417 Y13.868 E5.75764
G1 X26.793 Y13.627 E5.76878
G1 X29.186 Y12.295 E5.8371
G1 X29.522 Y12.131 E5.84642
G1 X30.954 Y11.519 E5.88527
G1 X31.311 Y11.388 E5.89476
G1 X33.676 Y10.661 E5.95648
G1 X34.089 Y10.56 E5.96708
G1 X35.967 Y10.218 E6.0147
G1 X36.388 Y10.167 E6.02528
G1 X38.517 Y10.034 E6.07849
G1 X38.96 Y10.034 E6.08954
G1 X41.059 Y10.162 E6.142
G1 X41.53 Y10.222 E6.15384
G1 X44.09 Y10.722 E6.21891
G1 X44.45 Y10.811 E6.22816
G1 X45.562 Y11.15 E6.25716
G1 X45.785 Y11.227 E6.26304
G1 X46.954 Y11.669 E6.29422
G1 X47.192 Y11.768 E6.30065
G1 X48.656 Y12.445 E6.34088
G1 X48.99 Y12.622 E6.35031
G1 X51.399 Y14.06 E6.4203
G1 X51.767 Y14.311 E6.43141
G1 X54.028 Y16.073 E6.50291
G1 X54.299 Y16.307 E6.51185
G1 X55.872 Y17.806 E6.56605
G1 X56.039 Y17.977 E6.57201
G1 X57.042 Y19.069 E6.609
G1 X57.19 Y19.24 E6.61464
G1 X58.696 Y21.102 E6.67438
G1 X58.889 Y21.364 E6.68249
G1 X60.795 Y24.213 E6.768
G1 X60.974 Y24.511 E6.77667
G1 X62.644 Y27.619 E6.86468
G1 X62.775 Y27.889 E6.87217
G1 X64.106 Y30.954 E6.95553
G1 X64.208 Y31.217 E6.96256
G1 X65.327 Y34.471 E7.0484
G1 X65.403 Y34.721 E7.05492
G1 X66.288 Y38.066 E7.14123
G1 X66.333 Y38.256 E7.1461
G1 X66.704 Y40.044 E7.19165
G1 X66.738 Y40.232 E7.19642
G1 X67.277 Y43.762 E7.28549
G1 X67.306 Y44.007 E7.29165
G1 X67.61 Y47.667 E7.38326
G1 X67.622 Y47.91 E7.38933
G1 X67.677 Y51.49 E7.47865
G1 X67.672 Y51.731 E7.48466
G1 X67.484 Y55.358 E7.57526
G1 X67.463 Y55.6 E7.58132
G1 X67.037 Y59.157 E7.67068
G1 X67 Y59.401 E7.67684
G1 X66.351 Y62.815 E7.76352
G1 X66.295 Y63.063 E7.76987
G1 X65.407 Y66.424 E7.85658
G1 X65.33 Y66.675 E7.86313
G1 X64.205 Y69.945 E7.94939
G1 X64.131 Y70.143 E7.95467
G1 X63.503 Y71.671 E7.99588
G1 X63.415 Y71.867 E8.00124
G1 X61.972 Y74.857 E8.08405
G1 X61.83 Y75.123 E8.09158
G1 X60.148 Y77.971 E8.17408
G1 X59.984 Y78.223 E8.18158
G1 X58.567 Y80.221 E8.24269
G1 X58.423 Y80.41 E8.24861
G1 X57.317 Y81.769 E8.29232
G1 X57.179 Y81.929 E8.29759
G1 X55.983 Y83.234 E8.34175
G1 X55.804 Y83.417 E8.34814
G1 X54.234 Y84.903 E8.40206
G1 X53.975 Y85.125 E8.41057
G1 X51.868 Y86.771 E8.47727
G1 X51.531 Y87.005 E8.4875
G1 X49.346 Y88.342 E8.5514
G1 X49.062 Y88.499 E8.55949
G1 X47.88 Y89.083 E8.59238
G1 X47.566 Y89.219 E8.60092
G1 X45.303 Y90.081 E8.66132
G1 X44.858 Y90.219 E8.67295
G1 X42.528 Y90.775 E8.7327
G1 X42.161 Y90.842 E8.74201
G1 X40.822 Y91.018 E8.7757
G1 X40.463 Y91.047 E8.78468
G1 X38.306 Y91.113 E8.83851
G1 X37.854 Y91.099 E8.84979
G1 X35.645 Y90.888 E8.90515
G1 X35.227 Y90.823 E8.9157
G1 X33.468 Y90.443 E8.96059
G1 X33.19 Y90.371 E8.96775
G1 X31.978 Y90.006 E8.99933
G1 X31.743 Y89.926 E9.00552
G1 X30.574 Y89.484 E9.0367
G1 X30.339 Y89.386 E9.04305
G1 X28.911 Y88.727 E9.08228
G1 X28.578 Y88.552 E9.09166
G1 X26.154 Y87.11 E9.16202
G1 X25.825 Y86.889 E9.17191
G1 X24.08 Y85.571 E9.22646
G1 X23.838 Y85.37 E9.23431
G1 X22.232 Y83.92 E9.28828
G1 X21.977 Y83.666 E9.29726
G1 X19.709 Y81.164 E9.3815
G1 X19.508 Y80.922 E9.38934
G1 X18.387 Y79.445 E9.4356
G1 X18.252 Y79.255 E9.44141
G1 X16.825 Y77.097 E9.50595
G1 X16.661 Y76.822 E9.51394
G1 X14.888 Y73.541 E9.60697
G1 X14.753 Y73.264 E9.61465
G1 X13.422 Y70.199 E9.69801
G1 X13.321 Y69.939 E9.70497
G1 X12.217 Y66.739 E9.78941
G1 X12.14 Y66.485 E9.79603
G1 X11.236 Y63.066 E9.88425
G1 X11.179 Y62.816 E9.89064
G1 X10.518 Y59.325 E9.97927
G1 X10.48 Y59.077 E9.98553
G1 X10.052 Y55.45 E10.07663
G1 X10.031 Y55.206 E10.08274
G1 X9.853 Y51.604 E10.17271
G1 X9.85 Y51.362 E10.17874
G1 X9.915 Y47.732 E10.26931
G1 X9.927 Y47.49 E10.27535
G1 X10.23 Y43.935 E10.36435
G1 X10.259 Y43.693 E10.37043
G1 X10.801 Y40.173 E10.45928
G1 X10.848 Y39.926 E10.46555
G1 X11.622 Y36.506 E10.55302
G1 X11.688 Y36.255 E10.55949
G1 X12.7 Y32.924 E10.64633
G1 X12.765 Y32.731 E10.65141
G1 X13.348 Y31.14 E10.69368
G1 X13.427 Y30.943 E10.69898
G1 X14.762 Y27.873 E10.78249
G1 X14.913 Y27.565 E10.79104
G1 X17.075 Y23.66 E10.90239
G1 X17.249 Y23.379 E10.91063
G1 X18.378 Y21.72 E10.96069
G1 X18.517 Y21.529 E10.96658
G1 X19.982 Y19.653 E11.02596
G1 X20.148 Y19.455 E11.0324
G0 F3600 X20.445 Y19.723
G1 F1800 X21.714 Y18.319 E11.07961
G1 X21.912 Y18.119 E11.08663
G1 X24.113 Y16.078 E11.16151
G1 X24.399 Y15.842 E11.17076
G1 X26.654 Y14.191 E11.24047
G1 X26.988 Y13.977 E11.25037
G1 X29.381 Y12.645 E11.31869
G1 X29.679 Y12.498 E11.32698
G1 X31.111 Y11.886 E11.36582
G1 X31.429 Y11.77 E11.37427
G1 X33.794 Y11.043 E11.43599
G1 X34.161 Y10.954 E11.44541
G1 X36.039 Y10.612 E11.49302
G1 X36.412 Y10.566 E11.5024
G1 X38.541 Y10.433 E11.55561
G1 X38.936 Y10.433 E11.56546
G1 X41.035 Y10.561 E11.61792
G1 X41.453 Y10.614 E11.62843
G1 X44.013 Y11.114 E11.6935
G1 X44.333 Y11.194 E11.70173
G1 X45.445 Y11.533 E11.73072
G1 X45.644 Y11.601 E11.73597
G1 X46.813 Y12.043 E11.76715
G1 X47.024 Y12.132 E11.77286
G1 X48.488 Y12.809 E11.81309
G1 X48.785 Y12.965 E11.82146
G1 X51.194 Y14.403 E11.89145
G1 X51.521 Y14.627 E11.90133
G1 X53.782 Y16.389 E11.97284
G1 X54.023 Y16.596 E11.98076
G1 X55.596 Y18.095 E12.03497
G1 X55.745 Y18.247 E12.04028
G1 X56.748 Y19.339 E12.07726
G1 X56.879 Y19.492 E12.08229
G1 X58.385 Y21.354 E12.14203
G1 X58.557 Y21.587 E12.14925
G1 X60.463 Y24.436 E12.23476
G1 X60.622 Y24.7 E12.24244
G1 X62.292 Y27.808 E12.33046
G1 X62.408 Y28.048 E12.33711
G1 X63.739 Y31.113 E12.42046
G1 X63.83 Y31.347 E12.42672
G1 X64.949 Y34.601 E12.51256
G1 X65.017 Y34.824 E12.51838
G1 X65.902 Y38.169 E12.60469
G1 X65.941 Y38.337 E12.60899
G1 X66.312 Y40.125 E12.65454
G1 X66.342 Y40.292 E12.65878
G1 X66.881 Y43.822 E12.74785
G1 X66.907 Y44.04 E12.75333
G1 X67.211 Y47.7 E12.84494
G1 X67.222 Y47.916 E12.85034
G1 X67.277 Y51.496 E12.93965
G1 X67.273 Y51.711 E12.94502
G1 X67.085 Y55.338 E13.03561
G1 X67.066 Y55.553 E13.041
G1 X66.64 Y59.11 E13.13036
G1 X66.607 Y59.327 E13.13584
G1 X65.958 Y62.741 E13.22252
G1 X65.908 Y62.96 E13.22813
G1 X65.02 Y66.321 E13.31484
G1 X64.952 Y66.545 E13.32068
G1 X63.827 Y69.815 E13.40695
G1 X63.761 Y69.99 E13.41161
G1 X63.133 Y71.518 E13.45282
G1 X63.055 Y71.693 E13.4576
G1 X61.612 Y74.683 E13.54042
G1 X61.485 Y74.919 E13.5471
G1 X59.803 Y77.767 E13.62961
G1 X59.658 Y77.991 E13.63627
G1 X58.241 Y79.989 E13.69737
G1 X58.113 Y80.158 E13.70266
G1 X57.007 Y81.517 E13.74637
G1 X56.884 Y81.659 E13.75105
G1 X55.688 Y82.964 E13.79521
G1 X55.529 Y83.126 E13.80087
G1 X53.959 Y84.612 E13.8548
G1 X53.729 Y84.81 E13.86237
G1 X51.622 Y86.456 E13.92906
G1 X51.322 Y86.664 E13.93817
G1 X49.137 Y88.001 E14.00207
G1 X48.884 Y88.14 E14.00927
G1 X47.702 Y88.724 E14.04216
G1 X47.424 Y88.845 E14.04972
G1 X45.161 Y89.707 E14.11013
G1 X44.765 Y89.83 E14.12047
G1 X42.435 Y90.386 E14.18023
G1 X42.109 Y90.446 E14.1885
G1 X40.77 Y90.622 E14.22218
G1 X40.451 Y90.648 E14.23017
G1 X38.294 Y90.714 E14.284
G1 X37.892 Y90.701 E14.29403
G1 X35.683 Y90.49 E14.34939
G1 X35.311 Y90.432 E14.35878
G1 X33.552 Y90.052 E14.40367
G1 X33.305 Y89.988 E14.41004
G1 X32.093 Y89.623 E14.44161
G1 X31.884 Y89.552 E14.44712
G1 X30.715 Y89.11 E14.47829
G1 X30.506 Y89.023 E14.48394
G1 X29.078 Y88.364 E14.52317
G1 X28.783 Y88.208 E14.5315
G1 X26.359 Y86.766 E14.60185
G1 X26.066 Y86.569 E14.61066
G1 X24.321 Y85.251 E14.66521
G1 X24.106 Y85.073 E14.67217
G1 X22.5 Y83.623 E14.72615
G1 X22.273 Y83.397 E14.73414
G1 X20.005 Y80.895 E14.81838
G1 X19.827 Y80.681 E14.82532
G1 X18.706 Y79.204 E14.87157
G1 X18.586 Y79.034 E14.87676
G1 X17.159 Y76.876 E14.9413
G1 X17.013 Y76.632 E14.94839
G1 X15.24 Y73.351 E15.04142
G1 X15.12 Y73.105 E15.04825
G1 X13.789 Y70.04 E15.13161
G1 X13.699 Y69.809 E15.13779
G1 X12.595 Y66.609 E15.22223
G1 X12.526 Y66.383 E15.22813
G1 X11.622 Y62.964 E15.31634
G1 X11.572 Y62.741 E15.32205
G1 X10.911 Y59.25 E15.41068
G1 X10.877 Y59.03 E15.41623
G1 X10.449 Y55.403 E15.50733
G1 X10.431 Y55.186 E15.51276
G1 X10.253 Y51.584 E15.60273
G1 X10.25 Y51.369 E15.60809
G1 X10.315 Y47.739 E15.69866
G1 X10.326 Y47.524 E15.70403
G1 X10.629 Y43.969 E15.79303
G1 X10.654 Y43.754 E15.79843
G1 X11.196 Y40.234 E15.88727
G1 X11.238 Y40.015 E15.89283
G1 X12.012 Y36.595 E15.9803
G1 X12.071 Y36.371 E15.98608
G1 X13.083 Y33.04 E16.07292
G1 X13.14 Y32.869 E16.07742
G1 X13.723 Y31.278 E16.11969
G1 X13.793 Y31.103 E16.12439
G1 X15.128 Y28.033 E16.2079
G1 X15.263 Y27.759 E16.21552
G1 X17.425 Y23.854 E16.32686
G1 X17.579 Y23.604 E16.33418
G1 X18.708 Y21.945 E16.38424
G1 X18.832 Y21.775 E16.38949
G1 X20.297 Y19.899 E16.44887
G1 X20.445 Y19.723 E16.4546
G1 F2100 E15.6546
G0 F3600 X22.273 Y21.476
G0 X22.331 Y21.531
G0 X25.021 Y24.113
G0 X25.078 Y24.168
G0 X25.249 Y24.333
;TYPE:SUPPORT
G1 F2100 E16.4546
G1 F1800 X31.53 Y19.062 E16.65914
G1 X32.943 Y20.745 E16.71396
G1 X30.92 Y22.444 E16.77986
G1 X30.911 Y22.469 E16.78052
G1 X30.865 Y22.509 E16.78204
G1 X30.705 Y22.992 E16.79474
G1 X31.335 Y25.678 E16.86356
G1 X33.229 Y33.836 E17.07247
G1 X33.65 Y34.171 E17.08589
G1 X36.329 Y34.171 E17.15272
G1 X36.758 Y33.978 E17.16446
G1 X37.657 Y32.973 E17.19809
G1 X37.697 Y32.953 E17.19921
G1 X46.836 Y22.706 E17.54171
G1 X46.794 Y22.139 E17.5559
G1 X44.54 Y20.252 E17.62922
G1 X45.953 Y18.568 E17.68406
G1 X52.234 Y23.839 E17.8886
G1 X50.819 Y25.522 E17.94345
G1 X48.8 Y23.827 E18.00921
G1 X48.249 Y23.845 E18.02296
G1 X38.872 Y32.79 E18.34623
G1 X39.428 Y34.171 E18.38337
G1 X52.287 Y34.171 E18.70414
G1 X52.287 Y36.577 E18.76415
G1 X52.686 Y36.976 E18.77823
G1 X57.364 Y36.976 E18.89492
G1 X57.364 Y49.093 E19.19718
G1 X58.008 Y49.737 E19.2199
G1 X59.137 Y49.737 E19.24807
G1 X59.781 Y49.093 E19.27078
G1 X59.781 Y45.981 E19.34841
G1 X61.981 Y45.981 E19.40329
G1 X61.981 Y54.181 E19.60784
G1 X59.781 Y54.181 E19.66272
G1 X59.781 Y51.485 E19.72997
G1 X59.137 Y50.841 E19.75269
G1 X58.008 Y50.841 E19.78086
G1 X57.364 Y51.485 E19.80357
G1 X57.364 Y64.676 E20.13263
G1 X52.686 Y64.676 E20.24932
G1 X52.287 Y65.075 E20.26339
G1 X52.287 Y67.371 E20.32067
G1 X41.751 Y67.371 E20.58349
G1 X41.327 Y69.025 E20.62608
G1 X50.533 Y74.088 E20.88817
G1 X51.06 Y74.014 E20.90144
G1 X53.394 Y71.679 E20.9838
G1 X54.951 Y73.237 E21.03874
G1 X49.152 Y79.036 E21.24332
G1 X47.595 Y77.479 E21.29824
G1 X49.55 Y75.539 E21.36695
G1 X49.467 Y74.946 E21.38189
G1 X35.678 Y67.371 E21.77434
G1 X29.535 Y67.371 E21.92758
G1 X29.126 Y67.742 E21.94135
G1 X28.303 Y76.074 E22.1502
G1 X28.436 Y76.498 E22.16129
G1 X29.712 Y78.019 E22.21081
G1 X28.027 Y79.434 E22.2657
G1 X22.757 Y73.152 E22.47025
G1 X24.444 Y71.741 E22.52511
G1 X26.189 Y73.819 E22.5928
G1 X27.586 Y73.39 E22.62925
G1 X28.141 Y67.798 E22.76943
G1 X27.752 Y67.371 E22.78384
G1 X23.087 Y67.371 E22.90021
G1 X23.087 Y55.235 E23.20294
G1 X22.759 Y54.811 E23.21631
